X:311
T:Winnie Hayes'
R:jig
M:6/8
L:1/8
K:Ador
|: edB ~A2A | BAA ABd | edB ~A2A | BAG Bdd |
edB ~A2A | BAG A2a | age deg | age dBA :|
|: efg ~a2a | bag a2g | e2a aea | ~b2b gab |
c'3 bd'b | age a2a | age deg | age dBA :|

